X:99
T:Flowing Tide (the)
R:hp 16 reel
M:2/2
L:1/8
Q:1/4=180
K:G
|:D|G2GB dGBd|GBdg bgag|egdg Bdge|dBAG edBA|
G2GB dGBd|GBdg bgag|egdg Bdge|dBAB G3:|
|:D|GFGB AGED|gfge dBGB|ceBd AcGB|(3cBA BG AGEG|
DGBd BABd|(3cBA BG AGEG|DGBd gdBd|cAFA G3:|]
" variation"
|:BA|G3B dGBd|GBdg (3bag ag|
(3efg (3ded (3Bcd ge|dBAG (3edB AF|
G3B dGBd|GBdg (3bag ag|
(3efg (3ded (3Bcd ge|dBAB G2:|
|:(3DEF|GFGB AGED|g3e dBAG|
(3cde (3Bcd (3ABc (3GAB|(3cBA (3BAG AGEG|
DGBc B2Bd|(3cBA (3BAG AGEG|
DGBd gdBd|(3cBA GF G2:|]

